public/new/svg19.svg

<svg width="28" height="28" viewBox="0 0 28 28" fill="none" xmlns="http://www.w3.org/2000/svg">
<path d="M7.27536 21.4325L19.8544 8.85348L19.1474 8.14648L6.56836 20.7255L7.27536 21.4325Z" fill="#77787E"/>
<path d="M6.69038 13.397L14.6034 21.31L15.3104 20.603L7.39738 12.69L6.69038 13.397ZM7.14938 10.558L14.2074 3.49997L13.5004 2.79297L6.44238 9.85097L7.14938 10.558Z" fill="#77787E"/>
<path d="M18.1494 21.558L25.2074 14.5L24.5004 13.793L17.4424 20.851L18.1494 21.558Z" fill="#77787E"/>
<path d="M5.5 24C6.328 24 7 23.328 7 22.5C7 21.672 6.328 21 5.5 21C4.672 21 4 21.672 4 22.5C4 23.328 4.672 24 5.5 24ZM5.5 25C4.119 25 3 23.881 3 22.5C3 21.119 4.119 20 5.5 20C6.881 20 8 21.119 8 22.5C8 23.881 6.881 25 5.5 25ZM5.5 13C6.328 13 7 12.328 7 11.5C7 10.672 6.328 10 5.5 10C4.672 10 4 10.672 4 11.5C4 12.328 4.672 13 5.5 13ZM5.5 14C4.119 14 3 12.881 3 11.5C3 10.119 4.119 9 5.5 9C6.881 9 8 10.119 8 11.5C8 12.881 6.881 14 5.5 14ZM16.5 24C17.328 24 18 23.328 18 22.5C18 21.672 17.328 21 16.5 21C15.672 21 15 21.672 15 22.5C15 23.328 15.672 24 16.5 24ZM16.5 25C15.119 25 14 23.881 14 22.5C14 21.119 15.119 20 16.5 20C17.881 20 19 21.119 19 22.5C19 23.881 17.881 25 16.5 25Z" fill="#77787E"/>
</svg>

<svg fill="none" height="28" viewBox="0 0 28 28" width="28" xmlns="http://www.w3.org/2000/svg"><g fill="#77787e"><path d="m7.27536 21.4325 12.57904-12.57902-.707-.707-12.57904 12.57902z"/><path d="m6.69038 13.397 7.91302 7.913.707-.707-7.91302-7.913zm.459-2.839 7.05802-7.05803-.707-.707-7.05802 7.058z"/><path d="m18.1494 21.558 7.058-7.058-.707-.707-7.058 7.058z"/><path d="m5.5 24c.828 0 1.5-.672 1.5-1.5s-.672-1.5-1.5-1.5-1.5.672-1.5 1.5.672 1.5 1.5 1.5zm0 1c-1.381 0-2.5-1.119-2.5-2.5s1.119-2.5 2.5-2.5 2.5 1.119 2.5 2.5-1.119 2.5-2.5 2.5zm0-12c.828 0 1.5-.672 1.5-1.5s-.672-1.5-1.5-1.5-1.5.672-1.5 1.5.672 1.5 1.5 1.5zm0 1c-1.381 0-2.5-1.119-2.5-2.5s1.119-2.5 2.5-2.5 2.5 1.119 2.5 2.5-1.119 2.5-2.5 2.5zm11 10c.828 0 1.5-.672 1.5-1.5s-.672-1.5-1.5-1.5-1.5.672-1.5 1.5.672 1.5 1.5 1.5zm0 1c-1.381 0-2.5-1.119-2.5-2.5s1.119-2.5 2.5-2.5 2.5 1.119 2.5 2.5-1.119 2.5-2.5 2.5z"/></g></svg>
